!!!!SEGMENT: pl-sa--79-a-ii-19--014_siwinski-andrzej--missa-pro-defunctis-quam-olim-abrahae.krn
!!!cenid: 17xx:306
!!!COM: Siwiński, Andrzej
!!!COM-rismID: pe41011487
!!!CDT: <1725->1725
!!!CNT:
!!!OPR: Missa pro defunctis
!!!OTL: Quam olim Abrahae
!!!OMV: 014
!!!PDT: 1726
!!!AGN: Sacred; Mass
!!!SMS-siglum: PL-SA
!!!SMS-shelfmark: 79/A II 19
!!!SMS-shelfwork: 001-014 M
!!!NIFC-rismSourceID: 1001070177
!!!NIFC-islandoraID:
!!!URL-pdf-islandora:
!!!URL-scan: https://bc.bdsandomierz.pl/dlibra/publication/1356/edition/1324/content @EN{Scan on Cyfrowa Biblioteka Diecezjalna w Sandomierzu} @PL{Skany w portalu Cyfrowa Biblioteka Diecezjalna w Sandomierzu}
!!!ONB-nifc: Uwaga: części Mszy: Requiem, Kyrie, Dies Irae, Quantus tremor, Tuba mirrum, Mors, Quid sum miser, Rex tremende, Quaerens me, Iuste iudex, Oro supplex, Pie Iesu Domine, Domine Iesu Christe,Quam olim Abrahae, Hostias, Sanctus, Osanna, Benedictus, Agnus Dei
!!!AIN: 1 alto 3 empty 2 oboe 2 violn 1 vox
!!!key:
**kern	**fba	**kern	**kern	**kern	**text	**kern	**text	**kern	**text	**kern	**text	**kern	**kern
*part9	*	*part8	*part7	*part6	*part6	*part5	*part5	*part4	*part4	*part3	*part3	*part2	*part1
*	*	*group3	*group3	*group2	*	*group2	*	*group2	*	*group2	*	*group1	*group1
*staff9	*	*staff8	*staff7	*staff6	*staff6	*staff5	*staff5	*staff4	*staff4	*staff3	*staff3	*staff2	*staff1
*Iempty	*	*Ivioln	*Ivioln	*Iempty	*	*Iempty	*	*Ialto	*	*Ivox	*	*Ioboe	*Ioboe
*I"P9	*	*I"Violino. 2do	*I"Violino 1mo	*I"P6	*	*I"P5	*	*I"Alto	*	*I"Canto	*	*I"Hobois 2do.	*I"Hautbo. 1mo.
*I'bc	*	*I'vl 2	*I'vl 1	*I'B	*	*I'T	*	*I'A	*	*I'S	*	*I'ob 2	*I'ob 1
*clefF4	*	*clefG2	*clefG2	*clefF4	*	*clefC4	*	*clefC3	*	*clefC1	*	*clefG2	*clefG2
*k[b-e-]	*	*k[e-b-]	*k[b-e-]	*k[b-e-]	*	*k[b-e-]	*	*k[b-e-]	*	*k[b-e-]	*	*k[e-b-]	*k[b-e-]
*g:	*	*g:	*g:	*g:	*	*g:	*	*g:	*	*g:	*	*g:	*g:
*M3/2	*	*M3/2	*M3/2	*M3/2	*	*M3/2	*	*M3/2	*	*M3/2	*	*M3/2	*M3/2
=1	=1	=1	=1	=1	=1	=1	=1	=1	=1	=1	=1	=1	=1
!LO:TX:a:t=P:problem=brak nazwy partii (na stronie tytułowej "Baſso pro Organo")	!	!	!	!LO:TX:a:t=P:problem=brak nazwy partii (na stronie tytułowej "Baſso vocali")	!	!LO:TX:a:t=P:problem=brak nazwy partii (na stronie tytułowej "Tenore")	!	!	!	!LO:TX:a:t=P:problem=bemole  b- ee-	!	!	!
!	!	!	!	!	!	!	!	!	!	!	!	!	!LO:TX:b:t=Quam olim abrahae.
!LO:TX:b:t=Tutti Quam olim	!	!LO:TX:b:t=Qam olim abrahae	!LO:TX:a:t=Quamoli	!	!	!	!	!	!	!	!	!	!LO:TX:a:t=2
!	!	!	!	!	!	!	!	!	!	!	!	!LO:N:vis=0	!LO:N:vis=0
2GG/	.	2b-/	2gg\	2G\	Quam	2d\	Quam	2g\	Quam	2b-\	Quam	0.r	0.r
2G\	.	2rg	2r	2B-\	o-	2d\	o-	2g\	o-	2b-\	o-	.	.
2F#X\	6	2rg	2rg	2d\	lim	2d\	lim	2a\	-lim	2a\	-lim	.	.
=2	=2	=2	=2	=2	=2	=2	=2	=2	=2	=2	=2	=2	=2
!	!	!LO:TX:a:t=1.	!LO:TX:a:t=1.	!	!	!	!	!	!	!	!	!	!
1G	.	1.r	1.r	2.B-\	a-	2.d\	A-	2.g\	Abra-	2.b-\	A-	.	.
.	.	.	.	4A\	-bra-	4d\	-bra-	4g\	.	4b-\	-bra-	.	.
2GG/	.	.	.	2G\	-hae	2d\	-hae	2g\	-hae	2b-\	-hae	.	.
=3	=3	=3-	=3	=3	=3	=3	=3	=3	=3	=3	=3	=3	=3
!	!	!	!	!	!	!LO:TX:a:t=2	!	!	!	!LO:TX:a:t=2	!	!	!
!LO:N:vis=0	!	!	!	!LO:N:vis=0	!	!LO:N:vis=0	!	!LO:N:vis=0	!	!LO:N:vis=0	!	!	!
0.r	.	4b-\	4dd\	0.r	.	0.r	.	0.r	.	0.r	.	4b-/	4dd\
.	.	4cc\	4ee-\	.	.	.	.	.	.	.	.	4cc/	4ee-\
.	.	4b-\	4dd\	.	.	.	.	.	.	.	.	4b-/	4dd\
.	.	4a\	4cc\	.	.	.	.	.	.	.	.	4a/	4cc\
.	.	4g\	4b-\	.	.	.	.	.	.	.	.	4g/	4b-/
!	!	!	!	!	!	!	!	!	!	!	!	!LO:TX:b:t=P:problem=♭ below	!
.	.	4f\	4a\	.	.	.	.	.	.	.	.	4f#X/	4a/
=4	=4	=4	=4	=4	=4	=4	=4	=4	=4	=4	=4	=4	=4
.	.	4dd\	4b-\	.	.	.	.	.	.	.	.	4dd\	4b-\
.	.	4ee-\	4cc\	.	.	.	.	.	.	.	.	4ee-\	4cc\
.	.	4dd\	4b-\	.	.	.	.	.	.	.	.	4dd\	4b-\
.	.	4cc\	4a\	.	.	.	.	.	.	.	.	4cc\	4a/
.	.	4b-\	4g/	.	.	.	.	.	.	.	.	4b-\	4g/
.	.	4a\	4f#X/	.	.	.	.	.	.	.	.	4a\	4f#X/
!	!	!	!	!	!	!	!	!	!	!	!	!	!LO:LB:g=original
=5-	=5	=5	=5	=5	=5	=5-	=5	=5-	=5	=5-	=5	=5	=5
*	*	*	*	*ij	*	*	*ij	*	*ij	*	*ij	*	*
2GG/	.	2b-/	2g/	2G\	Quam	2d\	Quam	2g\	Quam	2b-\	Quam	2b-/	2g/
2G\	.	2rg	2rg	2B-\	o-	2d\	o-	2g\	o-	2b-\	o-	2rg	2rg
2F#X\	6	2rg	2re	2d\	-lim	2d\	-lim	2a\	-lim	2a\	-lim	2rg	2rg
!	!	!	!	!	!	!	!	!	!	!LO:LB:g=original	!	!	!
=6	=6	=6	=6	=6	=6	=6	=6	=6	=6	=6	=6	=6	=6-
!	!	!	!LO:TX:a:t=3	!	!	!	!	!	!	!	!	!LO:N:vis=0	!LO:N:vis=0
!	!	!LO:N:vis=0	!LO:N:vis=0	!	!	!	!	!	!	!	!	!	!
1G	.	0.r	0.r	2.B-\	a-	2.d\	A-	2.g\	Abra-	2.b-\	A-	0.r	0.r
.	.	.	.	4A\	-bra-	4d\	-bra-	4g\	.	4b-\	-bra-	.	.
2GG/	.	.	.	2G\	-hae	2c\	-hae	2g\	-hae	2b-\	-hae	.	.
*	*	*	*	*	*Xij	*	*Xij	*	*Xij	*	*Xij	*	*
!	!	!	!	!	!	!LO:LB:g=original	!	!	!	!	!	!	!
=7	=7	=7	=7	=7	=7	=7	=7	=7	=7	=7	=7	=7	=7
2D/	.	.	.	2D\	Pro-	1A	pro-	1f	pro-	1dd	pro-	.	.
2Fn\	.	.	.	(2F\	-mi-	.	.	.	.	.	.	.	.
2G\	.	.	.	2G\)	.	2B-\	-mi-	2g\	-mi-	2dd\	-mi-	.	.
=8	=8	=8	=8	=8	=8	=8	=8	=8	=8	=8	=8	=8	=8
1A	.	1.r	1.r	1A	-siſ-	1A	-sis-	1e-	-sis-	1cc#X	-sis-	1.r	1.r
2D/	.	.	.	2D/	-ti	2A/	-ti	2f\	-ti	2dd\	-ti	.	.
!	!	!LO:LB:g=original	!	!	!	!	!	!	!	!	!	!	!
=9	=9	=9	=9	=9	=9	=9-	=9	=9	=9	=9	=9	=9	=9
!	!	!	!	!	!	!LO:TX:a:t=2	!	!	!	!	!	!	!
!LO:N:vis=0	!	!	!	!LO:N:vis=0	!	!LO:N:vis=0	!	!LO:N:vis=0	!	!LO:N:vis=0	!	!	!
0.r	.	4ff\	4aa\	0.r	.	0.r	.	0.r	.	0.r	.	4ff\	4aa\
.	.	4gg\	4bb-\	.	.	.	.	.	.	.	.	4gg\	4bb-\
.	.	4ff\	4aa\	.	.	.	.	.	.	.	.	4ff\	4aa\
!	!	!LO:TX:a:t=P:problem=♮ above	!	!	!	!	!	!	!	!	!	!LO:TX:a:t=P:problem=♮ above	!
.	.	4een\	4gg\	.	.	.	.	.	.	.	.	4een\	4gg\
.	.	4dd\	4ff\	.	.	.	.	.	.	.	.	4dd\	4ff\
!	!	!LO:TX:a:t=P:problem=# above	!LO:TX:a:t=P:problem=♮ above	!	!	!	!	!	!	!	!	!LO:TX:a:t=P:problem=# above	!LO:TX:a:t=P:problem=♮ above
.	.	4cc#X\	4een\	.	.	.	.	.	.	.	.	4cc#X\	4een\
=10	=10	=10	=10	=10	=10	=10	=10	=10	=10	=10	=10	=10	=10
.	.	4aa\	4ff\	.	.	.	.	.	.	.	.	4aa\	4ff\
.	.	4bb-\	4gg\	.	.	.	.	.	.	.	.	4bb-X\	4gg\
.	.	4aa\	4ff\	.	.	.	.	.	.	.	.	4aa\	4ff\
!	!	!	!LO:TX:a:t=P:problem=♮ above	!	!	!	!	!	!	!	!	!	!LO:TX:a:t=P:problem=♮ above
.	.	4gg\	4een\	.	.	.	.	.	.	.	.	4gg\	4een\
.	.	4ff\	4dd\	.	.	.	.	.	.	.	.	4ff\	4dd\
!	!	!LO:TX:a:t=P:problem=♮ above	!	!	!	!	!	!	!	!	!	!LO:TX:a:t=P:problem=♮ above	!LO:TX:a:t=P:problem=# above
.	.	4een\	4cc#X\	.	.	.	.	.	.	.	.	4een\	4cc#\
!	!	!	!	!	!	!	!	!	!	!	!	!LO:LB:g=original	!
=11-	=11	=11	=11	=11-	=11	=11-	=11	=11-	=11	=11-	=11	=11	=11
*	*	*	*	*	*	*	*ij	*	*	*	*	*	*
2D/	.	2ff\	2dd\	2D\	pro-	1A	pro-	1f	pro-	1dd	pro-	2ff\	2dd\
2F\	.	2dd\	2aa\	(2F\	-mi-	.	.	.	.	.	.	2dd\	4dd\
.	.	.	.	.	.	.	.	.	.	.	.	.	4ff\
2G\	.	2dd\	2bb-\	2G\)	.	2B-\	-mi-	2g\	-mi-	2dd\	-mi-	2b-\	4een\
.	.	.	.	.	.	.	.	.	.	.	.	.	4dd\
!	!	!	!LO:LB:g=original	!	!	!	!	!	!	!	!	!	!
=12	=12	=12	=12	=12	=12	=12	=12	=12	=12	=12	=12	=12	=12
!	!	!	!	!	!	!	!	!LO:SIC:v:s=1ee	!	!	!	!	!
1A	.	2.cc#X\	2.een\	2.A\	-siſ-	1A	-sis-	1e-	-sis-	1cc#X	-sis-	2.a/	2.cc#X\
.	.	4cc#\	4dd\	4A\	.	.	.	.	.	.	.	4g/	4cc#\
2D/	.	2dd\	2dd\	2D/	-ti	2A/	-ti	2f\	-ti	2dd\	-ti	2f/	2dd\
*	*	*	*	*	*	*	*Xij	*	*	*	*	*	*
!	!	!	!	!	!	!	!	!LO:LB:g=original	!	!	!	!	!
=13	=13	=13	=13	=13	=13	=13	=13	=13	=13	=13	=13	=13	=13
2r	.	2rg	2r	2r	.	2r	.	2r	.	2r	.	2rg	2r
2r	.	2rg	2r	2r	.	2r	.	2r	.	2r	.	2rg	2r
!	!	!	!	!LO:LB:g=original	!	!	!	!	!	!	!	!	!
2G\	.	2dd\	2gg\	2G\	Et	2d\	et	2g\	et	2b-\	Et	2b-/	2dd\
=14	=14	=14	=14	=14	=14	=14	=14	=14	=14	=14	=14	=14	=14
4F#X\	6	4ff#X\	4aa\	4F#X\	ſe-	2.d\	Se-	2.f#X\	Se-	4a\	Se-	4a/	1.ddt
!	!	!	!	!LO:TX:a:t=P:problem=♮ above	!	!	!	!	!	!	!	!	!
4E#X\	.	4een\	4gg\	4En\	.	.	.	.	.	4g\	.	4g/	.
!	!	!	!	!LO:TX:a:t=P:problem=# above	!	!	!	!	!	!	!	!	!
4F#X\	.	4ff#X\	4aa\	4F#X\	.	.	.	.	.	4a\	.	4a/	.
!	!	!	!	!	!	!	!	!	!	!	!	!LO:SIC:v:s=4f#	!
4D\	.	4dd\	4ff#X\	4D\	.	4d\	-mi-	4f#\	-mi-	4f#X/	.	4f/	.
4E#X\	.	4een\	4gg\	4E\	.	4d\	-ni	4f#\	-ni	4g/	.	4g/	.
*	*	*	*	*	*	*	*ij	*	*	*	*	*	*
!	!	!LO:TX:a:t=P:problem=# above	!	!	!	!	!	!	!	!	!	!	!
4F#X\	6	4ff#X\	4aa\	4F#\	.	4d\	et	4f#\	et	4a/	.	4a/	.
!LO:LB:g=original	!	!	!	!	!	!	!	!	!	!	!	!	!
=15	=15	=15	=15	=15	=15	=15	=15	=15	=15	=15	=15	=15	=15
2.G\	.	2dd\	2.bb-\	2.G\	-mi-	2.d\	Se-	2.g\	Se-	2.b-\	.	2.b-\	2.dd\
.	.	2dd\	.	.	.	.	.	.	.	.	.	.	.
4G\	.	.	4bb-\	4G\	-ni	4d\	-mi-	4g\	-mi-	4b-\	-mi-	4b-\	4dd\
2C/	.	2ee-\	2gg\	2C/	.	2c\	-ni	2g\	-ni	2ee-\	ni	2cc\	2ee-\
*	*	*	*	*	*	*	*Xij	*	*	*	*	*	*
=16	=16	=16	=16	=16	=16	=16	=16	=16	=16	=16	=16	=16	=16
2D/	.	2a/	2ff#X\	2D/	E-	2d\	e-	2f#X\	e-	2a\	e-	2f#X/	2a/
2GG/	.	2b-/	2gg\	2GG/	-ius	2d\	-ius	2g,\	-ius	2g\	-ius	2g/	2g/
2G\	.	2dd/	2bb-\	2G\	et	2d\	et	2g\	Et	2b-\	Et	2b-/	2dd\
=17	=17	=17	=17	=17	=17	=17	=17	=17	=17	=17	=17	=17	=17
4F#X\	6	4ff#X\	4aa\	4F#X\	ſe-	2.d\	Se-	2.f#X\	Se-	4a\	Se-	4a/	1.ddt
!	!	!	!	!LO:TX:a:t=P:problem=♮ above	!	!	!	!	!	!	!	!	!
4En\	.	4een\	4gg\	4En\	.	.	.	.	.	4g\	.	4g/	.
!	!	!	!	!LO:TX:a:t=P:problem=# above	!	!	!	!	!	!	!	!	!
4F#X\	.	4ff#X\	4aa\	4F#X\	.	.	.	.	.	4a\	.	4a/	.
!	!	!	!	!	!	!	!	!	!	!	!	!LO:TX:b:t=P:problem=# below	!
4D\	.	4dd\	4ff#X\	4D\	.	4d\	-mi-	4f#\	-mi-	4f#X/	.	4f#X/	.
!	!	!	!	!LO:TX:a:t=P:problem=♮ above	!	!	!	!	!	!	!	!	!
4En\	.	4een\	4gg\	4En\	.	4d\	-ni	4f#\	-ni	4g/	.	4g/	.
*	*	*	*	*	*	*	*ij	*	*	*	*	*	*
!	!	!	!	!LO:TX:a:t=P:problem=# above	!	!	!	!	!	!	!	!	!
4F#X\	6	4ff#X\	4aa\	4F#X\	.	4d\	et	4f#\	et	4a/	.	4a/	.
!	!	!LO:LB:g=original	!	!	!	!	!	!	!	!	!	!	!LO:LB:g=original
=18	=18	=18	=18	=18	=18	=18	=18	=18	=18	=18	=18	=18	=18
2.G\	.	2.dd\	2.bb-\	2.G\	-mi-	2.d\	Se-	2.g\	Se-	2.b-\	.	2.b-/	2.dd\
4G\	.	4dd\	4bb-\	4G\	-ni	4d\	-mi-	4g\	-mi-	4b-\	-mi-	4b-/	4dd\
2C/	.	2ee-\	2gg\	2C/	.	2c\	-ni	2g\	-ni	2ee-\	-ni	2cc/	2ee-\
*	*	*	*	*	*	*	*Xij	*	*	*	*	*	*
!	!	!	!	!	!	!LO:LB:g=original	!	!	!	!	!	!	!
=19	=19	=19	=19	=19	=19	=19	=19	=19	=19	=19	=19	=19	=19
!	!	!	!LO:TX:a:t=P:problem=wymazana nuta	!	!	!	!	!	!	!	!	!	!
1.D	4	1.a	1.ff#X	1.D	E-	1.A	e-	1.f#X	e-	1.a	e-	1.f#X	1.a
.	3	.	.	.	.	.	.	.	.	.	.	.	.
=20	=20	=20	=20	=20	=20	=20	=20	=20	=20	=20	=20	=20	=20
!	!	!LO:TX:a:t=P:problem=fermata bez kropki	!	!	!	!	!	!	!	!	!	!	!
1.GG	.	1.b-;	1.gg	1.GG	-iuſ	1.B-	-ius	1.g	-ius	1.g	-ius	1.g	1.g
==	==	==	==	==	==	==	==	==	==	==	==	==	==
*-	*-	*-	*-	*-	*-	*-	*-	*-	*-	*-	*-	*-	*-
!!!system-decoration: [g1][g2][g3]s9
!!!ENC: Marta Lawrence
!!!END: 2020-12-03
!!!ENC: Andrzej Gręziak
!!!END: 2020-04-29
